svgs/sharp-solid/arrow-down-z-a.svg

<svg xmlns="http://www.w3.org/2000/svg" viewBox="0 0 576 512"><!--! Font Awesome Pro 6.6.0 by @fontawesome - https://fontawesome.com License - https://fontawesome.com/license (Commercial License) Copyright 2024 Fonticons, Inc. --><path d="M160 479.4l23.6-25.7 88-96L293.2 334 246 290.8l-21.6 23.6L192 349.7 192 64l0-32-64 0 0 32 0 285.7L95.6 314.4 74 290.8 26.8 334l21.6 23.6 88 96L160 479.4zM320 32l0 64 32 0 52 0-73 63.9L320 169.5l0 14.5 0 8 0 32 32 0 128 0 32 0 0-64-32 0-52 0 73-63.9L512 86.5 512 72l0-8 0-32-32 0L352 32l-32 0zm75.5 224l-8.6 18.7-88 192L292.8 480l70.4 0 14.7-32 76.3 0 14.7 32 70.4 0-6.1-13.3-88-192L436.5 256l-41.1 0zM416 364.8L432.1 400l-32.3 0L416 364.8z"/></svg>

<svg xmlns="http://www.w3.org/2000/svg" viewBox="0 0 576 512"><!--! Font Awesome Pro 6.4.2 by @fontawesome - https://fontawesome.com License - https://fontawesome.com/license (Commercial License) Copyright 2023 Fonticons, Inc. --><path d="M160 479.4l23.6-25.7 88-96L293.2 334 246 290.8l-21.6 23.6L192 349.7V64 32H128V64 349.7L95.6 314.4 74 290.8 26.8 334l21.6 23.6 88 96L160 479.4zM320 32V96h32 52l-73 63.9L320 169.5V184v8 32h32H480h32V160H480 428l73-63.9L512 86.5V72 64 32H480 352 320zm75.5 224l-8.6 18.7-88 192L292.8 480h70.4l14.7-32h76.3l14.7 32h70.4l-6.1-13.3-88-192L436.5 256H395.5zM416 364.8L432.1 400H399.9L416 364.8z"/></svg>
